X:14
T:Princess Royal
T:Miss MacDermott Roe
R:carolan
C:Turlough O'Carolan (1670-1738)
H:See also set dances #11 and #7
Z:id:hn-carolan-14
M:C|
L:1/4
K:Em
B/A/ | GF EB/A/ | GF EB | cB Ad/c/ | B/c/B/A/ GB |
A/B/A/G/ F/G/F/E/ | DC B,B/A/ | GF/E/ G/F/E/D/ | E2E :|
|: B | e>d ef | gG Gg | g/f/e/d/ c/B/A/G/ | F/G/A/F/ DE/F/ |
GF/G/ AG/A/ | BB e2 | d2 cd/c/ | B2 AB/A/ |
A/G/G/F/ E/G/F/E/ | DC B,B/A/ | GF/E/ G/F/E/D/ | E2 E :|
<end>
<start>
